X:1
T:L\aangdansen fr\aan Solleron
O:Sverige
Z:Bert Van Vreckem, 2004-05-15 <http://flanders.blackmill.net/music/>
M:3/4
L:1/4
K:Eb
"Bb7"B, D E|F>A "Ebm"^F|E ^F/=F/ E/D/|"Bb7"E>D B,|\
"Bb7"B, D E|F>A "Ebm"^F|E ^F/=F/ E/D/|"Ebm"E E2:|
|:"Ebm"B A F|"Bb7"A>F "Ebm"^F|"Ebm"^F B A|"Bb7"F A/F/ ^F|"Ebm"E ^F "Bb7"=F|"Ebm"E3:|
